X: 1
T:Bonny Dundee
M:6/8
L:1/8
Q:80
C:
S:March
K:HP
|: {g}c/2d/2|
{g}e2{GdG}e{gef}e3/2{g}c/2e|
a3/2g/2{a}f{gef}e2d|  !
{g}c/2e3/2{g}A{g}c/2e3/2c|
{g}B2{GdGe}B{gBd}B3/2{g}c/2d|
{g}e2{GdG}e{gef}e3/2{g}c/2e|  !
a3/2g/2{a}f{gef}e2d|
{g}c/2e3/2{g}A{g}c/2e3/2c|
{g}A2{GdGe}A{GAG}A2:| |:  !
G|
{g}A2{GdGe}A{Gdc}d2c|
{g}B2{GdGe}B{gBd}B3|
{g}B2{GdGe}B{g}B3/2c/2d|  !
{g}c2{GdGe}c{gcd}c2{e}A|
{gcd}c3/2{e}B/2{d}c{Gdc}d3/2{g}c/2d|
{g}e2{GdG}e{gfg}f3/2e/2d|  !
{g}c/2e3/2{g}A{g}c/2e3/2c|
{g}A2{GdGe}A{GAG}A2:|
